images/instagram-logo.svg

<svg width="40" height="41" fill="none" xmlns="http://www.w3.org/2000/svg"><circle cx="20" cy="20.0161" r="20" fill="#EDFFFC"/><path d="M25 10.0161H15c-2.7614 0-5 2.2386-5 5v10c0 2.7614 2.2386 5 5 5h10c2.7614 0 5-2.2386 5-5v-10c0-2.7614-2.2386-5-5-5z" stroke="#02897A" stroke-width="2" stroke-linecap="round" stroke-linejoin="round"/><path d="M24 19.3859c.1234.8323-.0188 1.6822-.4063 2.429-.3875.7468-1.0006 1.3524-1.7521 1.7307-.7515.3783-1.6032.5099-2.4339.3763-.8306-.1337-1.598-.5259-2.1929-1.1208-.5949-.5949-.9871-1.3623-1.1208-2.193-.1336-.8306-.002-1.6823.3763-2.4338.3782-.7515.9838-1.3646 1.7306-1.7521.7468-.3875 1.5968-.5297 2.4291-.4063.8489.1259 1.6348.5215 2.2416 1.1283.6069.6069 1.0025 1.3928 1.1284 2.2417zM25.5 14.5161h.01" stroke="#02897A" stroke-width="2" stroke-linecap="round" stroke-linejoin="round"/></svg>

<svg width="40" height="41" viewBox="0 0 40 41" fill="none" xmlns="http://www.w3.org/2000/svg">
<circle cx="20" cy="20.0161" r="20" fill="#EDFFFC"/>
<path d="M25 10.0161H15C12.2386 10.0161 10 12.2547 10 15.0161V25.0161C10 27.7775 12.2386 30.0161 15 30.0161H25C27.7614 30.0161 30 27.7775 30 25.0161V15.0161C30 12.2547 27.7614 10.0161 25 10.0161Z" stroke="#02897A" stroke-width="2" stroke-linecap="round" stroke-linejoin="round"/>
<path d="M24 19.3859C24.1234 20.2182 23.9812 21.0681 23.5937 21.8149C23.2062 22.5617 22.5931 23.1673 21.8416 23.5456C21.0901 23.9239 20.2384 24.0555 19.4077 23.9219C18.5771 23.7882 17.8097 23.396 17.2148 22.8011C16.6199 22.2062 16.2277 21.4388 16.094 20.6081C15.9604 19.7775 16.092 18.9258 16.4703 18.1743C16.8485 17.4228 17.4541 16.8097 18.2009 16.4222C18.9477 16.0347 19.7977 15.8925 20.63 16.0159C21.4789 16.1418 22.2648 16.5374 22.8716 17.1442C23.4785 17.7511 23.8741 18.537 24 19.3859Z" stroke="#02897A" stroke-width="2" stroke-linecap="round" stroke-linejoin="round"/>
<path d="M25.5 14.5161H25.51" stroke="#02897A" stroke-width="2" stroke-linecap="round" stroke-linejoin="round"/>
</svg>
